img/icones/whatsapp.svg

<svg width="24" height="24" viewBox="0 0 24 24" fill="none" xmlns="http://www.w3.org/2000/svg">
<g clip-path="url(#clip0_624_42)">
<path d="M20.4015 3.48907C19.3012 2.37859 17.9909 1.49819 16.547 0.899182C15.103 0.300173 13.5543 -0.00546641 11.991 7.39958e-05C5.4405 7.39958e-05 0.102 5.33707 0.096 11.8891C0.096 13.9876 0.645 16.0291 1.6815 17.8366L0 24.0001L6.306 22.3471C8.05051 23.2964 10.0049 23.7941 11.991 23.7946H11.997C18.549 23.7946 23.886 18.4576 23.892 11.8996C23.8935 10.3366 23.5857 8.78885 22.9864 7.34539C22.3871 5.90193 21.5096 4.59132 20.4015 3.48907ZM11.991 21.7816C10.2195 21.7822 8.48055 21.3055 6.957 20.4016L6.597 20.1856L2.856 21.1666L3.855 17.5171L3.621 17.1406C2.63071 15.5661 2.10697 13.7431 2.1105 11.8831C2.1105 6.44407 6.546 2.00707 11.997 2.00707C13.2956 2.00474 14.5818 2.25949 15.7815 2.75661C16.9812 3.25374 18.0706 3.98341 18.987 4.90357C19.9065 5.82015 20.6355 6.90971 21.1319 8.10942C21.6282 9.30913 21.8822 10.5952 21.879 11.8936C21.873 17.3521 17.4375 21.7816 11.991 21.7816ZM17.4135 14.3806C17.118 14.2321 15.6585 13.5136 15.384 13.4116C15.111 13.3141 14.9115 13.2631 14.7165 13.5601C14.517 13.8556 13.947 14.5291 13.776 14.7226C13.605 14.9221 13.428 14.9446 13.131 14.7976C12.8355 14.6476 11.877 14.3356 10.743 13.3201C9.858 12.5326 9.2655 11.5576 9.0885 11.2621C8.9175 10.9651 9.072 10.8061 9.2205 10.6576C9.351 10.5256 9.516 10.3096 9.6645 10.1386C9.8145 9.96757 9.864 9.84157 9.9615 9.64357C10.059 9.44257 10.0125 9.27157 9.939 9.12307C9.864 8.97457 9.2715 7.50907 9.021 6.91807C8.781 6.33457 8.5365 6.41557 8.3535 6.40807C8.1825 6.39757 7.983 6.39757 7.7835 6.39757C7.63285 6.40132 7.48459 6.43616 7.34804 6.49992C7.21149 6.56368 7.08959 6.65497 6.99 6.76807C6.717 7.06507 5.9535 7.78357 5.9535 9.24907C5.9535 10.7146 7.0185 12.1231 7.1685 12.3226C7.3155 12.5221 9.2595 15.5206 12.243 16.8106C12.948 17.1181 13.503 17.2996 13.9365 17.4376C14.649 17.6656 15.2925 17.6311 15.8055 17.5576C16.3755 17.4706 17.562 16.8376 17.8125 16.1431C18.0585 15.4471 18.0585 14.8531 17.9835 14.7286C17.91 14.6026 17.7105 14.5291 17.4135 14.3806Z" fill="#F5F5F5"/>
</g>
<defs>
<clipPath id="clip0_624_42">
<rect width="24" height="24" fill="white"/>
</clipPath>
</defs>
</svg>

<svg width="24" height="24" fill="none" xmlns="http://www.w3.org/2000/svg"><g clip-path="url(#a)"><path d="M20.401 3.49A11.782 11.782 0 0 0 11.991 0C5.441 0 .102 5.337.096 11.89c0 2.098.549 4.14 1.585 5.947L0 24l6.306-1.653a11.9 11.9 0 0 0 5.685 1.448h.006c6.552 0 11.889-5.337 11.895-11.895a11.847 11.847 0 0 0-3.49-8.41Zm-8.41 18.292a9.86 9.86 0 0 1-5.034-1.38l-.36-.216-3.741.98.999-3.649-.234-.376a9.84 9.84 0 0 1-1.51-5.258c0-5.439 4.435-9.876 9.886-9.876a9.84 9.84 0 0 1 6.99 2.897 9.837 9.837 0 0 1 2.892 6.99c-.006 5.458-4.442 9.888-9.888 9.888Zm5.422-7.401c-.295-.149-1.755-.867-2.029-.97-.273-.097-.473-.148-.668.15-.199.295-.769.968-.94 1.162-.171.2-.348.222-.645.075-.296-.15-1.254-.462-2.388-1.478-.885-.787-1.478-1.762-1.655-2.058-.17-.297-.016-.456.133-.604.13-.132.295-.348.444-.52.15-.17.199-.296.296-.494.098-.201.051-.372-.022-.52-.075-.15-.668-1.615-.918-2.206-.24-.583-.485-.502-.668-.51-.17-.01-.37-.01-.57-.01a1.094 1.094 0 0 0-.793.37c-.273.297-1.037 1.016-1.037 2.481 0 1.466 1.066 2.874 1.215 3.074.147.2 2.091 3.198 5.075 4.488.705.307 1.26.489 1.694.627.712.228 1.356.193 1.869.12.57-.087 1.756-.72 2.007-1.415.245-.696.245-1.29.17-1.414-.073-.126-.273-.2-.57-.348Z" fill="#A3A3A3"/></g><defs><clipPath id="a"><path fill="#fff" d="M0 0h24v24H0z"/></clipPath></defs></svg>
